fonts/kmap-icons/SVG_edits/audiovideo.svg

<?xml version="1.0" encoding="utf-8"?>
<!-- Generated by IcoMoon.io -->
<!DOCTYPE svg PUBLIC "-//W3C//DTD SVG 1.1//EN" "http://www.w3.org/Graphics/SVG/1.1/DTD/svg11.dtd">
<svg version="1.1" xmlns="http://www.w3.org/2000/svg" xmlns:xlink="http://www.w3.org/1999/xlink" width="32" height="32" viewBox="0 0 32 32">
<g>
</g>
	<path d="M14 8v16l12-8-12-8zM16 11.501l6.514 4.499-6.514 4.476v-8.975z" fill="#000000" />
	<path d="M7 8v16l12-8-12-8zM9 11.501l6.513 4.499-6.513 4.476v-8.975z" fill="#000000" />
</svg>

<?xml version="1.0" encoding="utf-8"?>
<!-- Generator: Adobe Illustrator 14.0.0, SVG Export Plug-In . SVG Version: 6.00 Build 43363)  -->
<!DOCTYPE svg PUBLIC "-//W3C//DTD SVG 1.1//EN" "http://www.w3.org/Graphics/SVG/1.1/DTD/svg11.dtd">
<svg version="1.1" id="Layer_1" xmlns="http://www.w3.org/2000/svg" xmlns:xlink="http://www.w3.org/1999/xlink" x="0px" y="0px"
	 width="32px" height="32px" viewBox="0 0 32 32" enable-background="new 0 0 32 32" xml:space="preserve">
<path fill-rule="evenodd" clip-rule="evenodd" fill="#231F20" d="M14,8v16l12-8L14,8z M16,11.501L22.514,16L16,20.476V11.501z"/>
<path fill-rule="evenodd" clip-rule="evenodd" fill="#231F20" d="M7,8v16l12-8L7,8z M9,11.501L15.513,16L9,20.476V11.501z"/>
</svg>
